storage/app/icons/phosphoricons/thin/chalkboard-thin.svg

<svg xmlns="http://www.w3.org/2000/svg" fill="currentColor" viewBox="0 0 256 256"><path d="M240 196h-12V56a12 12 0 0 0-12-12H40a12 12 0 0 0-12 12v140H16a4 4 0 0 0 0 8h224a4 4 0 0 0 0-8M36 56a4 4 0 0 1 4-4h176a4 4 0 0 1 4 4v140h-24v-28a4 4 0 0 0-4-4h-72a4 4 0 0 0-4 4v28H68V84h120v52a4 4 0 0 0 8 0V80a4 4 0 0 0-4-4H64a4 4 0 0 0-4 4v116H36Zm152 140h-64v-24h64Z"/></svg>

<svg xmlns="http://www.w3.org/2000/svg" viewBox="0 0 256 256" fill="currentColor"><path d="M240,196H228V56a12,12,0,0,0-12-12H40A12,12,0,0,0,28,56V196H16a4,4,0,0,0,0,8H240a4,4,0,0,0,0-8ZM36,56a4,4,0,0,1,4-4H216a4,4,0,0,1,4,4V196H196V168a4,4,0,0,0-4-4H120a4,4,0,0,0-4,4v28H68V84H188v52a4,4,0,0,0,8,0V80a4,4,0,0,0-4-4H64a4,4,0,0,0-4,4V196H36ZM188,196H124V172h64Z"/></svg>
